VirtualLibraryCreator/HTML/EN/plugins/VirtualLibraryCreator/html/images/vlc_icon.svg

<svg clip-rule="evenodd" fill-rule="evenodd" stroke-linejoin="round" stroke-miterlimit="2" viewBox="0 0 24 24" xmlns="http://www.w3.org/2000/svg"><g transform="matrix(.937061 0 0 .937061 .755263 .755263)"><path d="m317.264 56.914c33.725 0 61.106 27.381 61.106 61.107 0 33.725-27.381 61.106-61.106 61.106s-61.106-27.381-61.106-61.106c0-33.726 27.381-61.107 61.106-61.107zm0 30.553c16.863 0 30.553 13.691 30.553 30.554 0 16.862-13.69 30.553-30.553 30.553s-30.553-13.691-30.553-30.553c0-16.863 13.69-30.554 30.553-30.554z" transform="matrix(.0559052 0 0 .0559052 -.310639 -2.38637)"/><path d="m317.264 56.914c33.725 0 61.106 27.381 61.106 61.107 0 33.725-27.381 61.106-61.106 61.106s-61.106-27.381-61.106-61.106c0-33.726 27.381-61.107 61.106-61.107zm0 30.553c16.863 0 30.553 13.691 30.553 30.554 0 16.862-13.69 30.553-30.553 30.553s-30.553-13.691-30.553-30.553c0-16.863 13.69-30.554 30.553-30.554z" transform="matrix(.0561925 0 0 .0561925 1.46352 5.38283)"/><path d="m317.264 56.914c33.725 0 61.106 27.381 61.106 61.107 0 33.725-27.381 61.106-61.106 61.106s-61.106-27.381-61.106-61.106c0-33.726 27.381-61.107 61.106-61.107zm0 30.553c16.863 0 30.553 13.691 30.553 30.554 0 16.862-13.69 30.553-30.553 30.553s-30.553-13.691-30.553-30.553c0-16.863 13.69-30.554 30.553-30.554z" transform="matrix(.0560218 0 0 .0560218 -.30545 13.1775)"/><path d="m131.261 26.344c58.062 0 105.202 47.14 105.202 105.202 0 58.063-47.14 105.203-105.202 105.203-58.063 0-105.203-47.14-105.203-105.203 0-58.062 47.14-105.202 105.203-105.202zm0 52.601c29.031 0 52.601 23.57 52.601 52.601 0 29.032-23.57 52.602-52.601 52.602-29.032 0-52.602-23.57-52.602-52.602 0-29.031 23.57-52.601 52.602-52.601z" transform="matrix(.0536749 0 0 .0536749 .260831 4.95395)"/><path d="m93.081 40.377h77.736v20.018h-77.736z" transform="matrix(.0553705 -.0387582 .0524057 .0748676 3.38101 8.25711)"/><path d="m93.081 40.377h77.736v20.018h-77.736z" transform="matrix(.0659078 -.00002927 .00003951 .088954 5.89356 7.49705)"/><path d="m93.081 40.377h77.736v20.018h-77.736z" transform="matrix(.0533641 .0388823 -.0537194 .0737273 9.1512 7.76978)"/></g></svg>

<?xml version="1.0" encoding="UTF-8" standalone="no"?>
<!DOCTYPE svg PUBLIC "-//W3C//DTD SVG 1.1//EN" "http://www.w3.org/Graphics/SVG/1.1/DTD/svg11.dtd">
<svg width="100%" height="100%" viewBox="0 0 24 24" version="1.1" xmlns="http://www.w3.org/2000/svg" xmlns:xlink="http://www.w3.org/1999/xlink" xml:space="preserve" xmlns:serif="http://www.serif.com/" style="fill-rule:evenodd;clip-rule:evenodd;stroke-linejoin:round;stroke-miterlimit:2;">
    <g id="VLC" transform="matrix(0.937061,0,0,0.937061,0.755263,0.755263)" fill="#000">
        <g transform="matrix(0.0559052,0,0,0.0559052,-0.310639,-2.38637)">
            <path d="M317.264,56.914C350.989,56.914 378.37,84.295 378.37,118.021C378.37,151.746 350.989,179.127 317.264,179.127C283.539,179.127 256.158,151.746 256.158,118.021C256.158,84.295 283.539,56.914 317.264,56.914ZM317.264,87.467C334.127,87.467 347.817,101.158 347.817,118.021C347.817,134.883 334.127,148.574 317.264,148.574C300.401,148.574 286.711,134.883 286.711,118.021C286.711,101.158 300.401,87.467 317.264,87.467Z"/>
        </g>
        <g transform="matrix(0.0561925,0,0,0.0561925,1.46352,5.38283)">
            <path d="M317.264,56.914C350.989,56.914 378.37,84.295 378.37,118.021C378.37,151.746 350.989,179.127 317.264,179.127C283.539,179.127 256.158,151.746 256.158,118.021C256.158,84.295 283.539,56.914 317.264,56.914ZM317.264,87.467C334.127,87.467 347.817,101.158 347.817,118.021C347.817,134.883 334.127,148.574 317.264,148.574C300.401,148.574 286.711,134.883 286.711,118.021C286.711,101.158 300.401,87.467 317.264,87.467Z"/>
        </g>
        <g transform="matrix(0.0560218,0,0,0.0560218,-0.30545,13.1775)">
            <path d="M317.264,56.914C350.989,56.914 378.37,84.295 378.37,118.021C378.37,151.746 350.989,179.127 317.264,179.127C283.539,179.127 256.158,151.746 256.158,118.021C256.158,84.295 283.539,56.914 317.264,56.914ZM317.264,87.467C334.127,87.467 347.817,101.158 347.817,118.021C347.817,134.883 334.127,148.574 317.264,148.574C300.401,148.574 286.711,134.883 286.711,118.021C286.711,101.158 300.401,87.467 317.264,87.467Z"/>
        </g>
        <g transform="matrix(0.0536749,0,0,0.0536749,0.260831,4.95395)">
            <path d="M131.261,26.344C189.323,26.344 236.463,73.484 236.463,131.546C236.463,189.609 189.323,236.749 131.261,236.749C73.198,236.749 26.058,189.609 26.058,131.546C26.058,73.484 73.198,26.344 131.261,26.344ZM131.261,78.945C160.292,78.945 183.862,102.515 183.862,131.546C183.862,160.578 160.292,184.148 131.261,184.148C102.229,184.148 78.659,160.578 78.659,131.546C78.659,102.515 102.229,78.945 131.261,78.945Z"/>
        </g>
        <g transform="matrix(0.0553705,-0.0387582,0.0524057,0.0748676,3.38101,8.25711)">
            <rect x="93.081" y="40.377" width="77.736" height="20.018"/>
        </g>
        <g transform="matrix(0.0659078,-2.92727e-05,3.95086e-05,0.088954,5.89356,7.49705)">
            <rect x="93.081" y="40.377" width="77.736" height="20.018"/>
        </g>
        <g transform="matrix(0.0533641,0.0388823,-0.0537194,0.0737273,9.1512,7.76978)">
            <rect x="93.081" y="40.377" width="77.736" height="20.018"/>
        </g>
    </g>
</svg>
